packages/assets/static/images/icons/report.svg

<svg width="24" height="24" viewBox="0 0 24 24" xmlns="http://www.w3.org/2000/svg">
<path d="M21.2519 6.86995L16.0797 1.69776C15.865 1.48308 15.5744 1.36589 15.2706 1.3687L6.79749 1.4737C5.77374 1.47839 4.94218 2.31276 4.94218 3.33745V6.03089C4.94218 6.65245 5.44561 7.15589 6.06718 7.15589C6.68874 7.15589 7.19218 6.65245 7.19218 6.03089V3.71901L14.1597 3.63276V8.3737C14.1597 8.99526 14.6631 9.4987 15.2847 9.4987H19.3319V20.3681H18.9794C18.3578 20.3681 17.8544 20.8715 17.8544 21.4931C17.8544 22.1146 18.3578 22.6181 18.9794 22.6181H19.7181C20.7456 22.6181 21.5819 21.7818 21.5819 20.7543V7.66589C21.5819 7.36776 21.4628 7.08183 21.2519 6.86995ZM16.4097 5.20964L18.4487 7.2487H16.4097V5.20964Z"/>
<path d="M16.1191 20.369V16.4831C16.1191 15.8615 15.6156 15.3581 14.9941 15.3581H12.7787V13.1428C12.7787 12.5212 12.2753 12.0178 11.6537 12.0178H8.88249V9.37495C8.88249 8.75339 8.37905 8.24995 7.75749 8.24995H3.8603C3.23874 8.24995 2.7353 8.75339 2.7353 9.37495V20.3681C2.11936 20.3746 1.62155 20.8753 1.62155 21.4921C1.62155 22.109 2.12499 22.6171 2.74655 22.6171H16.1069C16.7284 22.6171 17.2319 22.1137 17.2319 21.4921C17.2319 20.8706 16.734 20.3737 16.1181 20.3681L16.1191 20.369ZM13.8691 17.6081V20.3681H12.7787V17.6081H13.8691ZM10.5287 14.2687V20.369H8.88249V14.2687H10.5287ZM6.63249 10.5009V20.369H4.9853V10.5009H6.63249Z"/>
</svg>

<svg viewBox="0 0 24 24" xmlns="http://www.w3.org/2000/svg" aria-hidden="true" fill="currentColor" height="24px" width="24px"><path d="M21.252 6.87 16.08 1.698a1.13 1.13 0 0 0-.81-.33l-8.473.106a1.866 1.866 0 0 0-1.855 1.863v2.694a1.125 1.125 0 1 0 2.25 0V3.719l6.968-.086v4.74c0 .622.503 1.126 1.125 1.126h4.047v10.87h-.353a1.125 1.125 0 1 0 0 2.25h.74a1.866 1.866 0 0 0 1.863-1.865V7.666c0-.298-.12-.584-.33-.796M16.41 5.21l2.039 2.039h-2.04z"/><path d="M16.12 20.369v-3.886c0-.622-.504-1.125-1.126-1.125H12.78v-2.215c0-.622-.504-1.125-1.125-1.125H8.882V9.375c0-.622-.503-1.125-1.125-1.125H3.86c-.621 0-1.125.503-1.125 1.125v10.993a1.125 1.125 0 0 0 .012 2.25h13.36a1.125 1.125 0 0 0 .011-2.25zm-2.25-2.76v2.76h-1.091v-2.76zm-3.341-3.34v6.1H8.882v-6.1zM6.632 10.5v9.868H4.985V10.5z"/></svg>
